public/avatar/item0/63.svg

<svg xmlns:xlink="http://www.w3.org/1999/xlink" height="58.65" width="49.15" xmlns="http://www.w3.org/2000/svg"><use height="6.75" transform="translate(15.7 30.35)" width="16.45" xlink:href="#a"/><defs><g id="a" fill-rule="evenodd"><path d="M7.45 15.6q0 1.1-.95 1.85-.9.8-2.25.8t-2.3-.8q-.9-.75-.9-1.85 0-1 .8-1.75v-.05l.1-.1.3-.2q.85-.55 2-.55 1.35 0 2.25.75.95.8.95 1.9M-4.6 18.35q-1.35 0-2.35-.8-.95-.8-.95-1.95t.95-1.95q1-.8 2.35-.8t2.3.8q1 .8 1 1.95t-1 1.95q-.95.8-2.3.8" fill="red" fill-opacity=".6" transform="translate(8.4 -12.25)"/><path d="M-.8 15.65q0 1.4-1.1 2.4Q-3 19-4.6 19q-1.55 0-2.7-1-1.1-.95-1.1-2.35 0-1.4 1.1-2.4t2.7-1q1.5 0 2.7.95 1.1 1 1.1 2.45m-1.8-1.7q-.8-.7-2-.7-2.8 0-2.8 2.4t2.8 2.4q1.15 0 2-.75.8-.65.8-1.65 0-1.05-.8-1.7m9.65 1.7q0-1.05-.8-1.7-.85-.7-2-.7-2.8 0-2.8 2.4t2.8 2.4q1.1 0 2-.75.8-.65.8-1.65m1 0q0 1.4-1.15 2.4-1 .95-2.65.95-1.55 0-2.7-1-1.1-.95-1.1-2.35 0-1.4 1.1-2.4t2.7-1q1.55 0 2.65.95 1.15 1 1.15 2.45" fill="#3e0202" transform="translate(8.4 -12.25)"/><path d="M.35 15.15q.9.1 1.05.75l-.95.3-1.3.05-.9-.55q.5-.8 2.1-.55" fill="#3e0202" transform="translate(8.4 -12.25)"/><path d="m6.45 14.15.35.45L4.5 18h-.05l-.2.05-.65-.1-.15-.05 2.7-4.05.3.3m-2.2-.9.8.1L2.4 17.4l-.3-.25-.35-.45 2.3-3.45h.2m-8.75 0 .6.05-2.4 4.2-.35-.25-.25-.25-.15-.25 2.1-3.45.45-.05m.3 4.75-.4.05-.5-.1 2.45-4.05.55.65L-4.2 18" fill="#fff" fill-opacity=".741" transform="translate(8.4 -12.25)"/></g></defs></svg>

<?xml version="1.0" encoding="UTF-8" standalone="no"?>
<svg xmlns:xlink="http://www.w3.org/1999/xlink" height="58.65px" width="49.15px" xmlns="http://www.w3.org/2000/svg">
  <g transform="matrix(1.0, 0.0, 0.0, 1.0, 24.1, 18.1)">
    <use height="6.75" transform="matrix(1.0, 0.0, 0.0, 1.0, -8.4, 12.25)" width="16.45" xlink:href="#shape0"/>
  </g>
  <defs>
    <g id="shape0" transform="matrix(1.0, 0.0, 0.0, 1.0, 8.4, -12.25)">
      <path d="M7.45 15.6 Q7.45 16.7 6.5 17.45 5.6 18.25 4.25 18.25 2.9 18.25 1.95 17.45 1.05 16.7 1.05 15.6 1.05 14.6 1.85 13.85 L1.85 13.8 1.95 13.7 2.25 13.5 Q3.1 12.95 4.25 12.95 5.6 12.95 6.5 13.7 7.45 14.5 7.45 15.6 M-4.6 18.35 Q-5.95 18.35 -6.95 17.55 -7.9 16.75 -7.9 15.6 -7.9 14.45 -6.95 13.65 -5.95 12.85 -4.6 12.85 -3.25 12.85 -2.3 13.65 -1.3 14.45 -1.3 15.6 -1.3 16.75 -2.3 17.55 -3.25 18.35 -4.6 18.35" fill="#ff0000" fill-opacity="0.6" fill-rule="evenodd" stroke="none"/>
      <path d="M-0.8 15.65 Q-0.8 17.05 -1.9 18.05 -3.0 19.0 -4.6 19.0 -6.15 19.0 -7.3 18.0 -8.4 17.05 -8.4 15.65 -8.4 14.25 -7.3 13.25 -6.2 12.25 -4.6 12.25 -3.1 12.25 -1.9 13.2 -0.8 14.2 -0.8 15.65 M-2.6 13.95 Q-3.4 13.25 -4.6 13.25 -7.4 13.25 -7.4 15.65 -7.4 18.05 -4.6 18.05 -3.45 18.05 -2.6 17.3 -1.8 16.65 -1.8 15.65 -1.8 14.6 -2.6 13.95" fill="#3e0202" fill-rule="evenodd" stroke="none"/>
      <path d="M7.05 15.65 Q7.05 14.6 6.25 13.95 5.4 13.25 4.25 13.25 1.45 13.25 1.45 15.65 1.45 18.05 4.25 18.05 5.35 18.05 6.25 17.3 7.05 16.65 7.05 15.65 M8.05 15.65 Q8.05 17.05 6.9 18.05 5.9 19.0 4.25 19.0 2.7 19.0 1.55 18.0 0.45 17.05 0.45 15.65 0.45 14.25 1.55 13.25 2.65 12.25 4.25 12.25 5.8 12.25 6.9 13.2 8.05 14.2 8.05 15.65" fill="#3e0202" fill-rule="evenodd" stroke="none"/>
      <path d="M0.35 15.15 Q1.25 15.25 1.4 15.9 L0.45 16.2 -0.85 16.25 -1.75 15.7 Q-1.25 14.9 0.35 15.15" fill="#3e0202" fill-rule="evenodd" stroke="none"/>
      <path d="M6.45 14.15 L6.8 14.6 4.5 18.0 4.45 18.0 4.25 18.05 3.6 17.95 3.45 17.9 6.15 13.85 6.45 14.15 M4.25 13.25 L5.05 13.35 2.4 17.4 2.1 17.15 1.75 16.7 4.05 13.25 4.25 13.25 M-4.5 13.25 L-3.9 13.3 -6.3 17.5 -6.65 17.25 -6.9 17.0 -7.05 16.75 -4.95 13.3 -4.5 13.25 M-4.2 18.0 L-4.6 18.05 -5.1 17.95 -2.65 13.9 -2.1 14.55 -4.2 18.0" fill="#ffffff" fill-opacity="0.7411765" fill-rule="evenodd" stroke="none"/>
    </g>
  </defs>
</svg>
